tools/download-figma-icons/icons/solid/book.svg

<svg width="24" height="24" viewBox="0 0 24 24" fill="none" xmlns="http://www.w3.org/2000/svg">
<path d="M23.2429 22.3791C23.1079 22.3791 22.9655 22.3416 22.8381 22.2591C22.8081 22.2366 20.6342 20.8798 17.8156 20.8798C15.3568 20.8798 13.1454 21.8918 12.5232 22.1991C12.1859 22.3716 11.7811 22.3566 11.4437 22.1692C10.9115 21.8693 8.98495 20.8798 6.57115 20.8798C3.70758 20.8798 1.14385 22.2666 1.11386 22.2816C0.754042 22.484 0.296769 22.3491 0.0943693 21.9818C-0.10803 21.6219 0.0269028 21.1647 0.386724 20.9623C0.506665 20.8948 3.31027 19.373 6.56366 19.373C9.14238 19.373 11.2338 20.3476 12.0135 20.7674C12.883 20.3551 15.2144 19.373 17.8081 19.373C21.0914 19.373 23.5427 20.9248 23.6402 20.9847C23.985 21.2096 24.09 21.6744 23.8651 22.0192C23.7226 22.2441 23.4828 22.3641 23.2354 22.3641L23.2429 22.3791Z" fill="black"/>
<path d="M23.4003 2.43179C22.6057 2.0045 20.4318 1 17.4257 1C14.6521 1 12.7855 1.86207 11.9685 2.33434C11.0539 1.86957 8.97744 1 6.18133 1C3.16033 1 1.22629 2.012 0.529134 2.45428C0.199298 2.66417 0.00439453 3.0165 0.00439453 3.39881V17.6342C0.00439453 18.0166 0.199298 18.3689 0.521638 18.5788C0.851474 18.7887 1.25627 18.8187 1.61609 18.6612C2.56812 18.2264 4.47967 17.4993 6.57113 17.4993C8.98494 17.4993 10.9115 18.4888 11.4437 18.7887C11.6236 18.8861 11.8185 18.9386 12.0134 18.9386C12.1858 18.9386 12.3583 18.9011 12.5232 18.8187C13.1454 18.5113 15.3568 17.4993 17.8156 17.4993C19.847 17.4993 21.5262 18.189 22.3433 18.6013C22.7031 18.7812 23.1154 18.7662 23.4603 18.5563C23.7976 18.3464 24 17.9941 24 17.6043V3.4138C24 3.00151 23.7751 2.62669 23.4078 2.42429L23.4003 2.43179ZM9.20982 7.69418C9.20982 7.88908 8.99993 8.00152 8.83501 7.90407L7.62811 7.14695C7.54565 7.09447 7.4482 7.09447 7.37324 7.14695L6.16634 7.90407C6.00142 8.00902 5.79152 7.88908 5.79152 7.69418V2.88906C5.79152 2.76163 5.88897 2.65668 6.01641 2.64169C7.80802 2.49926 8.76005 2.89656 9.07489 3.06897C9.15735 3.11395 9.20233 3.19641 9.20233 3.28636V7.69418H9.20982Z" fill="black"/>
</svg>

<svg width="24" height="24" viewBox="0 0 24 24" fill="none" xmlns="http://www.w3.org/2000/svg"><path d="M23.243 22.38a.746.746 0 0 1-.405-.12c-.03-.023-2.204-1.38-5.022-1.38-2.46 0-4.67 1.012-5.293 1.32a1.148 1.148 0 0 1-1.08-.03c-.531-.3-2.458-1.29-4.872-1.29-2.863 0-5.427 1.387-5.457 1.402a.748.748 0 0 1-1.02-.3.752.752 0 0 1 .293-1.02c.12-.067 2.923-1.589 6.177-1.589 2.578 0 4.67.975 5.45 1.394.869-.412 3.2-1.394 5.794-1.394 3.283 0 5.735 1.552 5.832 1.612a.75.75 0 0 1-.405 1.38l.008.014ZM23.4 2.432C22.606 2.005 20.432 1 17.426 1c-2.774 0-4.64.862-5.457 1.334C11.053 1.87 8.977 1 6.18 1 3.161 1 1.226 2.012.53 2.454c-.33.21-.525.563-.525.945v14.235c0 .383.195.735.518.945.33.21.734.24 1.094.082.952-.435 2.864-1.162 4.955-1.162 2.414 0 4.34.99 4.873 1.29a1.142 1.142 0 0 0 1.08.03c.621-.308 2.833-1.32 5.292-1.32 2.031 0 3.71.69 4.527 1.102.36.18.772.165 1.117-.045.338-.21.54-.562.54-.952V3.414a1.13 1.13 0 0 0-.592-.99l-.008.008ZM9.21 7.694c0 .195-.21.308-.375.21l-1.207-.757a.226.226 0 0 0-.255 0l-1.207.757a.244.244 0 0 1-.374-.21V2.89a.25.25 0 0 1 .224-.247c1.792-.143 2.744.255 3.059.427a.243.243 0 0 1 .127.217v4.408h.008Z" fill="currentColor"/></svg>
